X: 5476
T: Bunclody
R: waltz
M: 3/4
K: Bminor
FG|A2 d2 c2|dA F2 DF|E3 D C2|D4 cd|e2 A2 dc|
B2 A2 F2|G2 A2 F2|E4 cd|e2 A2 dc|B2 A2 GF|
G2 AF DF|E4 FG|A2 d2 ec|dA F2 DF|E3 D C2|D4||

